!!!!SEGMENT: pl-sa--600-a-ix-80--006_anonim--rondo.krn
!!!cenid: 18xx:671
!!!COM: Anonim
!!!COM-rismid: pe30004985
!!!CDT:
!!!CNT:
!!!OTL: Rondo
!!!PDT:
!!!AGN: Secular; Rondo
!!!SMS-siglum: PL-SA
!!!SMS-shelfmark: 600/A IX 80
!!!SMS-shelfwork: 006 W
!!!SMS-variant:
!!!SMS-altvar:
!!!NIFC-rismid: 1001065709
!!!URL-scan: http://bc.bdsandomierz.pl/dlibra/publication/1408/edition/1376/content
!!!ONB-nifc: Str. 4, s. 2-5
!!!AIN: 2 piano
!!!key:
**kern	**kern
*part2	*part1
*staff2	*staff1
*Ipiano	*Ipiano
*I"Piano	*I"Piano
*group1	*group1
*clefF4	*clefG2
*k[]	*k[]
*C:	*C:
*M3/8	*M3/8
*>[A,A,B]	*>[A,A,B]
=1	=1
*>A	*>A
!	!LO:TX:a:i:t=Rondo
8C/	8gg\ 8ccc
!LO:TX:a:t=P:problem=brak pauzy ósemkowej	!
8ryy	16gg\LL
.	16ee\
*clefG2	*
8c/ 8f	16bb\
.	16aa\JJ
=2	=2
8c/ 8e	8gg\
8r	16ee\LL
.	16cc\
8c/ 8a	16gg\
.	16ff\JJ
=3	=3
8c/ 8g	8ee\
8r	16cc\LL
.	16g\
8c/ 8f	16ee\
.	16dd\JJ
=4	=4
8c/ 8e	8cc\
*clefF4	*
16G\LL	8r
16F\	.
16E\	8r
16D\JJ	.
=5	=5
8C/	8ee\ 8ccc
!LO:TX:a:t=P:problem=brak pauzy ósemkowej	!
8ryy	16gg\LL
.	16ee\
*clefG2	*
8c/ 8f	16bb\
.	16aa\JJ
=6	=6
8c/ 8e	8gg\
8r	16ee\LL
.	16cc\
8c/ 8a	16gg\
.	16ff\JJ
=7	=7
8c/ 8g	8ee\
8r	16cc\LL
.	16g\
8c/ 8f	16ee\
.	16dd\JJ
=8	=8
8c/ 8e	8cc\
8r	8r
!LO:TX:a:t=P:problem=brak pauzy ósemkowej	!
8ryy	8r
*clefF4	*
!LO:LB:g=original	!LO:LB:g=original
=9:|!	=9:|!
*>B	*>B
16D\LL	8a\L 8dd
16E\	.
16F#X\	8a\ 8dd
16G\	.
16A\	8a\J 8dd
16F#\JJ	.
=10	=10
*	*^
8G\	8b/	8g\
8r	16b\LL	4rgyy
.	16gg\	.
8r	16ff#X\	.
.	16ee\JJ	.
*	*v	*v
=11	=11
4.D\ 4.A 4.c	16dd\LL
.	16cc\
.	16b\
.	16a\
.	16g\
.	16f#X\JJ
=12	=12
8G\ 8B	8g/
16GG/LL	8r
16AA/	.
16BB/	8r
16C/JJ	.
=13	=13
16D\LL	8a\L 8dd
16E\	.
16F#X\	8a\ 8dd
16G\	.
16A\	8a\J 8dd
16F#\JJ	.
=14	=14
8G\	8g/ 8b
8r	16b\LL
.	16gg\
8r	16ff#X\
.	16ee\JJ
=15	=15
4.D\ 4.A 4.c	16dd`\LL
.	16cc\
.	16b\
.	16a\
.	16g\
.	16f#X\JJ
=16	=16
8G\ 8B	8g/
8r	16b\LL
.	16gg\
8r	16ff#X\
.	16ee\JJ
*clefG2	*
=17	=17
4.d/ 4.a 4.cc	16dd\LL
.	16cc\
.	16b\
.	16a\
.	16g\
.	16f#X\JJ
=18	=18
8b\ 8dd	8g/
*clefF4	*
16GG/LL	8r
16AA/	.
16BB/	8r
16C/JJ	.
=19	=19
!	!LO:N:vis=4
16D\LL	4.r
16E\	.
16F\JJ	.
16F#X\LL	.
16G\	.
16A\JJ	.
!LO:LB:g=original	!LO:LB:g=original
=20	=20
!	!LO:TX:a:t=P:problem=dwie szesnastki zapisane przy linii basowej
4.r	16B/LL
.	16c/JJ
.	16d/LL
.	16e/
.	16f/
.	16f#X/JJ
=21	=21
4.r	16g\LL
.	16a\
.	16b\
.	16cc\
.	16dd\
.	16ee\JJ
*clefG2	*
=22	=22
!	!LO:TX:a:t=P:problem=znak początku repetycji
4G/ 4B 4f	16gg\LL
.	16ff\
.	16cc#X\
.	16dd\
8r	16ee\
.	16dd\JJ
=23	=23
!LO:N:vis=8	!
4G/ 4B 4f	16gg\LL
.	16ff\
.	16cc#X\
.	16dd\
8r	16ee\
!	!LO:TX:a:t=P:problem=znak końca repetycji
.	16dd\JJ
=24	=24
!	!LO:TX:a:t=P:problem=powtórzenie tt. 22-23 oznaczone znakami repetycji
4G/yy 4Byy 4fyy	16gg\LLyy
.	16ff\yy
.	16cc#X\yy
.	16dd\yy
8ryy	16ee\yy
.	16dd\JJyy
=25	=25
!LO:N:vis=8	!
4G/yy 4Byy 4fyy	16gg\LLyy
.	16ff\yy
.	16cc#X\yy
.	16dd\yy
8ryy	16ee\yy
.	16dd\JJyy
=26	=26
8r	4.gg\
8G/L 8B 8f	.
8G/J 8B 8f	.
=27	=27
!LO:N:vis=8	!
4G/ 4B 4f	16gg\LL
.	16ff\
.	16ee\
.	16ff\
8r	16dd\
.	16b\JJ
=28	=28
!LO:N:vis=8	!
4G/ 4B 4f	8g/
!	!LO:N:vis=8
.	4r;
!LO:TX:a:t=P:problem=brak pauzy ósemkowej	!
8ryy	.
*clefF4	*
=29	=29
8C/	8gg\ 8ccc
!LO:TX:a:t=P:problem=brak pauzy ósemkowej	!
8ryy	16gg\LL
.	16ee\
*clefG2	*
8c/ 8f	16bb\
.	16aa\JJ
=30	=30
8c/ 8e	8gg\
8r	16ee\LL
.	16cc\
8c/ 8a	16gg\
.	16ff\JJ
=31	=31
*rep	*
8c/ 8g	8ee\
8r	16cc\LL
.	16g\
8c/ 8a	16ee\
.	16dd\JJ
*Xrep	*
=32	=32
8c/ 8e	8cc\
*clefF4	*
16G\LL	8r
16F\	.
16E\	8r
16D\JJ	.
!LO:LB:g=original	!LO:LB:g=original
=33	=33
8C/	8ee\ 8ccc
!LO:TX:a:t=P:problem=brak pauzy ósemkowej	!
8ryy	16gg\LL
.	16ee\
*clefG2	*
8c/ 8f	16bb\
.	16aa\JJ
=34	=34
8c/ 8e	8gg\
8r	16ee\LL
.	16cc\
8c/ 8a	16gg\
.	16ff\JJ
=35	=35
8c/ 8g	8ee\
8r	16cc\LL
.	16g\
8c/ 8f	16ee\
.	16dd\JJ
=36	=36
8c/ 8e	8cc\
*clefF4	*
16CC/LL	8r
16DD/	.
16EE/	8r
16FF/JJ	.
=37	=37
16GG/LL	4.e/ 4.g 4.cc
16AA/	.
16BB/	.
16C/	.
16D/	.
16E/JJ	.
=38	=38
8F\	8d/ 8a 8cc
8r	16b/LL
.	16a/
8r	16g/
.	16f/JJ
=39	=39
4.r	16e/LL
.	16d/
.	16c#X/
.	16d/
.	16f/
.	16a/JJ
=40	=40
8G\ 8c 8e	16r
.	16ee\LL
8r	16dd\
.	16cc\
8r	16b\
.	16a\JJ
=41	=41
*rep	*
8G\ 8c 8e	16r
.	16cc\LL
8r	16b\
.	16a\
8r	16g\
.	16f\JJ
*Xrep	*
=42	=42
8GG/ 8C 8E	16r
.	16a/LL
8r	16g/
.	16f/
8r	16e/
.	16d/JJ
=43	=43
*rep	*
8GG/ 8C 8E	16r
.	16e/LL
8r	16d/
.	16c/
!LO:TX:b:t=Koniec na tej stronie	!
8r	16B/
!	!LO:TX:a:t=P:problem=partia urywa się w t. 43
.	16A/JJ
*Xrep	*
==	==
*-	*-
!!!system-decoration: [(g1)]
!!!ENC: Anna Matuszewska
!!!END: 2020-11-24
!!!ENC: Andrzej Kubiczek
!!!END: 2020-06-20
